X:69
T:Jack Lattin. BC.60
T:Jacky Layton
M:C
L:1/8
Q:100
S:Benjamin Cooke MS.circa 1770, F.Kidson Coll.
R:Misc.
O:England
A:x
Z:Jon Bagnall
K:G
G/A/B/c/ dg dBBg |  dBBg d2 {c}B2 | G/A/B/c/ dg dBBg | aAAB c2 BA |
G/A/B/c/ dB c2 BA | G/A/B/c/ dB ecdB | cAAB c2 BA |
|gd B/c/d/B/ gd  B/c/d/B/ |  gd  B/c/d/B/ c2 BA |
 gd B/c/d/B/ gd  B/c/d/B/ | aAAB c2 BA |]
